X:6760
T:The Fiery Clockface
O:england
M:6/8
L:1/8
K:D
d2d D2E|F2G A2B|=c2c E2F|G2A B2c|
d2d D2E|F2G A3|Bcd edc|d3-d3:|
|:f2f def|g2f e2d|c2B A2B|c2d e3|
f2f def|g2f e2d|c2a gfe|d3-d3:|


